X:1
T:both ways
T:both ways
T:alexandre tansman
C:aleandre tansman
%%score { 1 | 2 }
L:1/8
M:4/4
K:C
V:1 treble nm="Piano" snm="Pno."
V:2 bass 
V:1
 !1!A4 !3!c2 !4!d2 | !5!e4 !2!B4 | !5!e4 !4!d2 !3!^c2 | !4!d4 !1!A4 | !4!d4 c2 B2 | c4 !1!A4 | %6
 !3!c4 !2!B2 !1!A2 | !2!^G4 !1!A2 !2!B2 | !1!c4 !5!a4 | !4!^g8 | !4!g8 | !3!^f8 | !3!f8 | !2!e8 | %14
 !1!A4 !2!B2 !4!d2 | !3!c2 !1!A2 !2!B2 !1!^G2 | !1!A8 |] %17
V:2
 !1!A,8 | !2!^G,8 | !2!G,8 | !3!^F,8 | !3!F,8 | !4!E,8 | !4!^D,8 | !4!E,8 | !5!A,4 !3!C2 !2!D2 | %9
 !1!E4 !4!B,4 | !1!E4 !2!D2 !3!^C2 | !2!D4 !5!A,4 | !2!D4 !3!C2 !4!B,2 | !3!C4 !5!A,4 | !1!F,8 | %15
 !2!E,4 !5!E,,4 | !2!A,,8 |] %17

